!!!OTL: The Derby Ram
!!!ARE: England
!!!AMD: Pentatonic
**kern
*clefG2
*k[f#]
*M6/8
*MM92
{8d/
=1
4g/
8g/
4g/
8g/
=2
4.g/
4d/}
{8d/
=3
4g/
8g/
4g/
8b\
=4
4.dd\}
4r
{8dd\
=5
4ee\
8ee\
4ee\
8ee\
=6
4dd\
8dd\
4dd\}
{8b\
=7
4a/
8b/
4a/
8g/
=8
4d/}
8r
=9
!! Refrain
{4d/
8e/
=10
8g/L
8g/
8g/J
4g/
8g/
=11
4e/
8d/
4B/}
{8d/
=12
8g/L
8g/
8g/J
4g/
8g/
=13
[4.g/
8g/]}
8r
==
*-
